!!! OTL: Berkowitz601
!!! Chapter: 1
!!! Section: V
!!! Page: 153
!!! Mode: 
!!! Encoder: AR
**kern
*staff1
=1-
!!pagebreak:original
*clefG2
*k[]
*C:
*M3/8
16c/LL
16d/
16e-/
16f/
16f#/
16g#/JJ
=2
4a/
8f#/
=3
16a/LL
16b/
16a/
16g#/
16f#/
16e#/JJ
=4
8f#/
4d#/
=5
16f#/LL
16g#/
16f#/
16fn/
16e-/
16dn/JJ
=6
8e-/
4c/
=7
16B/LL
16c/
16d/
16e-/
16d/
16c/JJ
=8
4.f#/
=9
!!linebreak:original
16cc/LL
16b/
16a/
16g#/
16a/
16b/JJ
=10
8cc\L
8a\
[8dd\J
=11
16dd\LL]
16cc\
16dd\
16ee-\
16dd\
16cc\JJ
=12
8b\
4g#/
=13
16a/LL
16b/
16cc/
16b/
16a/
16g#/JJ
=14
8.a/L
16g#/k
[8f#/J
=15
!!linebreak:original
8f#/L]
8fn/
8e-/J
=16
16d/LL
16e-/
16f/
16g-/
16f/
16e-/JJ
=17
4.a/
=18
16c/LL
16d/
16e-/
16f/
16g-/
16f/JJ
=19
8e-/L
8c/
8A/J
=20
4.c/
==
*-
